X:1
T:Precious Lord, Take My Hand
T:Precious Lord, Take My Hand
T:George Nelson Allen, 1844
T:Thomas Andrew Dorsey, 1932
T:© 1938 (renewed 1965) Unichappell Music, Inc. Courtesy of the Cyber Hymnal™
C:George Nelson Allen, 1844
Z:© 1938 (renewed 1965) Unichappell Music, Inc.
Z:Courtesy of the Cyber Hymnal™
%%score ( 1 2 ) ( 3 4 )
L:1/8
Q:1/4=107
M:3/4
K:G
V:1 treble 
V:2 treble 
V:3 bass 
V:4 bass 
V:1
 [G,B,][A,C] | [B,D]4 [B,D][B,D] | [B,G]4 [DB][DB] | [CA]4 [CG][CG] | ([CE] [EG]3) [CE][CE] | %5
w: 1.~Pre- cious|Lord, take my|hand, Lead me|on, let stand,|I * am tired,|
w: 2.~When my|way grows dre-|ar, Pre- cious|Lord, lin- near,|When * my life|
w: 3.~When the|dark- ness ap-|pears And the|night dra- near,|And * the day|
 [B,D]4 [A,D][A,D] | [B,G]4 [^CB][CB] | A6- | [DA]4 [DB][Dc] | [Gd]4 [Fd][Fd] | [=FB]4 [FB][FB] | %11
w: I am I|am worn; the|storm,|* through the|night, Lead me|on to the|
w: i- s m-|ost gone, my|cry,|* hear my|call, Hold my|hand lest I|
w: i- s a-|nd gone, the|ri-|* ver I|stand, Guide my|feet, hold my|
 [EA]4 [EG][EG] | ([CE] [EG]3) ||"^Refrain" [^A,E][A,E] | ([B,D] [DG]3) G[GA] | %15
w: light: * *||||
w: fall: Take my|hand, *|pre- cious|Lord, * lead me|
w: hand: * *||||
 ([Gd] [DB]3) [CA][CG] | [B,G]4 |] %17
w: ||
w: home. * * *||
w: ||
V:2
 x2 | x6 | x6 | x6 | x6 | x6 | x6 | D4 ^C2 | x6 | x6 | x6 | x6 | x4 || x2 | x4 G x | x6 | x4 |] %17
V:3
 [G,,D,][G,,D,] | [G,,G,]4 [G,,G,][G,,G,] | [G,,D,]4 [G,,=F,][G,,F,] | [C,E,]4 [C,E,][C,E,] | %4
w: ~ ~|~ ~ ~|~ ~ ~|~ ~ ~|
 [C,G,]4 [C,G,][C,G,] | G,4 [F,A,][F,A,] | [E,G,]4 [A,,G,][A,,G,] | ([D,F,]4 [E,G,]2 | %8
w: ~ ~ ~|~ ~ ~|~ ~ ~|~ *|
 [F,A,]4) G,[G,A,] | [G,B,]4 [A,C][A,C] | [G,D]4 [D,G,][D,G,] | [C,C]4 [C,C][C,C] | (G, C3) || %13
w: * ~ ~|~ ~ ~|~ ~ ~|||
 [^C,G,][C,G,] | (G, B,3) [E,C][_E,C] | (B, G,3) [D,F,]D, | [G,,D,]4 |] %17
w: ||||
V:4
 x2 | x6 | x6 | x6 | x6 | G,4 x2 | x6 | x6 | x4 G, x | x6 | x6 | x6 | C,4 || x2 | D,4 x2 | %15
 D,4 D, x | x4 |] %17

